X:1
T:Alford, 76.86 D
T:Alford, 76.86 D
T:John Bacchus Dykes, 1875
T:Public Domain Courtesy of the Cyber Hymnal™
C:John Bacchus Dykes, 1875
Z:Public Domain
Z:Courtesy of the Cyber Hymnal™
%%score ( 1 2 ) ( 3 4 )
L:1/8
Q:1/4=110
M:4/4
K:Ab
V:1 treble 
V:2 treble 
V:3 bass 
V:4 bass 
V:1
 [Ec]2 | [Dd]3 [Dd] [DA]2 [DB]2 | [Cc]2 [EA]4 [Ac]2 | [Ae]2 [Ac]2 [FA]2 [GB]2 | A6 [Ec]2 | %5
 [FB]3 [=DB] [Ee]2 [EB]2 | [F=d]2 [Ec]2 [GB]2 [FA]2 | [EG]3 [B,E] [=DA]2 [B,D]2 | [B,E]6 E2 | %9
 [DB]3 [DB] [CA]2 [FB]2 | [Fc]2 [=Ec]4 [_Ec]2 | [Dd]2 [DB]2 [Cc]2 (BA) | B6 E2 | F2 E2 A2 [CA]2 | %14
 [FB]3 [Ec] [Dd]2 [FB]2 | [EA]3 E [Ac]2 [GB]2 | A6 |] %17
V:2
 x2 | x8 | x8 | x8 | A6 x2 | x8 | x8 | x8 | x6 E2 | x8 | x8 | x6 =D2 | (=D4 E2) E2 | F2 E2 A2 x2 | %14
 x8 | x3 E x4 | A6 |] %17
V:3
 [A,,A,]2 | [A,,F,]3 [A,,F,] [A,,F,]2 [A,,_F,]2 | [A,,E,]2 [A,C]4 [F,A,]2 | %3
 [E,C]2 [E,E]2 [F,C]2 [E,D]2 | [A,C]6 [A,C]2 | [A,=D]3 [A,B,] [G,B,]2 [G,B,]2 | %6
 [A,=B,]2 [A,C]2 [=E,D]2 [F,C]2 | [B,,B,]3 [B,,G,] [B,,F,]2 [B,,A,]2 | [E,G,]6 E,2 | %9
 [E,G,]3 [E,G,] [F,A,]2 (F,G,) | [C,A,]2 [C,G,]4 [F,=A,]2 | [B,,B,]2 [E,G,]2 [A,,A,]2 [F,A,]2 | %12
 (A,2 F,2) [E,G,]2 E,2 | F,2 E,2 A,2 A,2 | [D,F,]3 [C,=A,] [B,,B,]2 [D,F,]2 | %15
 [E,C]3 [E,D] [E,E]2 [E,D]2 | [A,,C]6 |] %17
V:4
 x2 | x8 | x8 | x8 | x8 | x8 | x8 | x8 | x6 E,2 | x6 D,2 | x8 | x8 | B,,4 E,2 x2 | %13
 F,2 E,2 A,2 (F,E,) | x8 | x8 | x6 |] %17

